public/images/hashed/6f77756e77dea84e813989a2007e9304.svg

<?xml version="1.0" encoding="UTF-8"?>
<svg width="80px" height="80px" viewBox="0 0 80 80" version="1.1" xmlns="http://www.w3.org/2000/svg" xmlns:xlink="http://www.w3.org/1999/xlink">
    <!-- Generator: Sketch 64 (93537) - https://sketch.com -->
    <title>Icon-Architecture/64/Arch_Amazon-EC2-Auto-Scaling_64</title>
    <desc>Created with Sketch.</desc>
    <defs>
        <linearGradient x1="0%" y1="100%" x2="100%" y2="0%" id="linearGradient-1">
            <stop stop-color="#C8511B" offset="0%"></stop>
            <stop stop-color="#FF9900" offset="100%"></stop>
        </linearGradient>
    </defs>
    <g id="Icon-Architecture/64/Arch_Amazon-EC2-Auto-Scaling_64" stroke="none" stroke-width="1" fill="none" fill-rule="evenodd">
        <g id="Icon-Architecture-BG/64/Compute" fill="url(#linearGradient-1)">
            <rect id="Rectangle" x="0" y="0" width="80" height="80"></rect>
        </g>
        <path d="M68,39.0045152 L56.6324995,39.0045152 L62.2105263,33.4108863 L60.8068371,32.0032709 L53.1044148,39.7272372 L60.8068371,47.450208 L62.2105263,46.0425925 L57.1774962,40.9954848 L68,40.9954848 L68,39.0045152 Z M18.0558624,33.4108863 L23.634882,39.0045152 L13,39.0045152 L13,40.9954848 L23.0898852,40.9954848 L18.0558624,46.0425925 L19.4605444,47.450208 L27.1619739,39.7272372 L19.4605444,32.0032709 L18.0558624,33.4108863 Z M33.5510432,48.9593629 L48.4416649,48.9593629 L48.4416649,34.0270914 L33.5510432,34.0270914 L33.5510432,48.9593629 Z M50.2761894,33.0316066 L52.4124973,33.0316066 L52.4124973,35.0225762 L50.4270811,35.0225762 L50.4270811,38.0090305 L52.4124973,38.0090305 L52.4124973,40 L50.4270811,40 L50.4270811,42.9864543 L52.4124973,42.9864543 L52.4124973,44.9774238 L50.4270811,44.9774238 L50.4270811,47.9638781 L52.4124973,47.9638781 L52.4124973,49.9548477 L50.2761894,49.9548477 C50.1084218,50.3291499 49.8086239,50.6307818 49.434373,50.8000142 L49.434373,52.941302 L47.4489568,52.941302 L47.4489568,50.9503324 L44.4708324,50.9503324 L44.4708324,52.941302 L42.4854162,52.941302 L42.4854162,50.9503324 L39.5072919,50.9503324 L39.5072919,52.941302 L37.5218757,52.941302 L37.5218757,50.9503324 L34.5437514,50.9503324 L34.5437514,52.941302 L32.5583351,52.941302 L32.5583351,50.8000142 C32.1840842,50.6307818 31.8842863,50.3291499 31.715526,49.9548477 L29.5802108,49.9548477 L29.5802108,47.9638781 L31.565627,47.9638781 L31.565627,44.9774238 L29.5802108,44.9774238 L29.5802108,42.9864543 L31.565627,42.9864543 L31.565627,40 L29.5802108,40 L29.5802108,38.0090305 L31.565627,38.0090305 L31.565627,35.0225762 L29.5802108,35.0225762 L29.5802108,33.0316066 L31.715526,33.0316066 C31.8842863,32.6573044 32.1840842,32.3556725 32.5583351,32.1864401 L32.5583351,30.0451523 L34.5437514,30.0451523 L34.5437514,32.0361219 L37.5218757,32.0361219 L37.5218757,30.0451523 L39.5072919,30.0451523 L39.5072919,32.0361219 L42.4854162,32.0361219 L42.4854162,30.0451523 L44.4708324,30.0451523 L44.4708324,32.0361219 L47.4489568,32.0361219 L47.4489568,30.0451523 L49.434373,30.0451523 L49.434373,32.1864401 C49.8086239,32.3556725 50.1084218,32.6573044 50.2761894,33.0316066 L50.2761894,33.0316066 Z M41.4927081,64.1892843 L41.4927081,53.9367867 L39.5072919,53.9367867 L39.5072919,64.1892843 L34.2012671,58.8684182 L32.7975778,60.2760337 L40.5,68 L48.2024222,60.2760337 L46.7987329,58.8684182 L41.4927081,64.1892843 Z M34.2012671,21.1315818 L32.7975778,19.7239663 L40.5,12 L48.2024222,19.7239663 L46.7987329,21.1315818 L41.4927081,15.8107157 L41.4927081,26.9372489 L39.5072919,26.9372489 L39.5072919,15.8107157 L34.2012671,21.1315818 Z" id="Amazon-EC2-Auto-Scaling_Icon_64_Squid" fill="#FFFFFF"></path>
    </g>
</svg>

<svg xmlns="http://www.w3.org/2000/svg" width="80" height="80"><defs><linearGradient id="a" x1="0%" x2="100%" y1="100%" y2="0%"><stop offset="0%" stop-color="#C8511B"/><stop offset="100%" stop-color="#F90"/></linearGradient></defs><g fill="none" fill-rule="evenodd"><path fill="url(#a)" d="M0 0h80v80H0z"/><path fill="#FFF" d="M68 39.005H56.632l5.579-5.594-1.404-1.408-7.703 7.724 7.703 7.723 1.404-1.407-5.034-5.048H68v-1.99ZM18.056 33.41l5.579 5.594H13v1.99h10.09l-5.034 5.048 1.405 1.407 7.701-7.723-7.701-7.724-1.405 1.408ZM33.55 48.959h14.89V34.027h-14.89V48.96Zm16.725-15.927h2.136v1.99h-1.985v2.987h1.985V40h-1.985v2.986h1.985v1.991h-1.985v2.987h1.985v1.99h-2.136a1.684 1.684 0 0 1-.842.846v2.141H47.45v-1.99h-2.978v1.99h-1.986v-1.99h-2.978v1.99h-1.985v-1.99h-2.978v1.99h-1.986V50.8a1.69 1.69 0 0 1-.842-.845H29.58v-1.991h1.986v-2.987H29.58v-1.99h1.986V40H29.58v-1.991h1.986v-2.986H29.58v-1.991h2.136a1.69 1.69 0 0 1 .842-.846v-2.14h1.986v1.99h2.978v-1.99h1.985v1.99h2.978v-1.99h1.986v1.99h2.978v-1.99h1.985v2.14c.375.17.674.471.842.846Zm-8.783 31.157V53.937h-1.986v10.252l-5.306-5.32-1.403 1.407L40.5 68l7.702-7.724-1.403-1.408-5.306 5.321ZM34.2 21.132l-1.403-1.408L40.5 12l7.702 7.724-1.403 1.408-5.306-5.321v11.126h-1.986V15.811l-5.306 5.32Z"/></g></svg>
